X:1
T:A Prisoner for Life
M:6/8
L:1/8
K:C
 G/2G/2| ECF DB,C| CFD C2 C| CFF AFF| FGA G2 E| GGA GFF| FGA G2 G|\
 ECF DA, B,/2B,/2| CFD C2||
